src/xmb/flatui/SNK - Neo Geo Pocket Color-content.svg

<?xml version="1.0" encoding="UTF-8" standalone="no"?>
<!-- Created with Inkscape (http://www.inkscape.org/) -->

<svg
   xmlns:dc="http://purl.org/dc/elements/1.1/"
   xmlns:cc="http://creativecommons.org/ns#"
   xmlns:rdf="http://www.w3.org/1999/02/22-rdf-syntax-ns#"
   xmlns:svg="http://www.w3.org/2000/svg"
   xmlns="http://www.w3.org/2000/svg"
   xmlns:sodipodi="http://sodipodi.sourceforge.net/DTD/sodipodi-0.dtd"
   xmlns:inkscape="http://www.inkscape.org/namespaces/inkscape"
   id="svg2"
   version="1.1"
   inkscape:version="0.91 r13725"
   width="64"
   height="64"
   sodipodi:docname="SNK - Neo Geo Pocket Color-content.svg"
   enable-background="new">
  <metadata
     id="metadata8">
    <rdf:RDF>
      <cc:Work
         rdf:about="">
        <dc:format>image/svg+xml</dc:format>
        <dc:type
           rdf:resource="http://purl.org/dc/dcmitype/StillImage" />
        <dc:title />
      </cc:Work>
    </rdf:RDF>
  </metadata>
  <defs
     id="defs6">
    <filter
       inkscape:collect="always"
       id="filter3844">
      <feBlend
         inkscape:collect="always"
         mode="lighten"
         in2="BackgroundImage"
         id="feBlend3846" />
    </filter>
  </defs>
  <sodipodi:namedview
     pagecolor="#ffffff"
     bordercolor="#666666"
     borderopacity="1"
     objecttolerance="10"
     gridtolerance="10"
     guidetolerance="10"
     inkscape:pageopacity="0"
     inkscape:pageshadow="2"
     inkscape:window-width="1440"
     inkscape:window-height="836"
     id="namedview4"
     showgrid="true"
     inkscape:snap-bbox="true"
     showguides="true"
     inkscape:guide-bbox="true"
     inkscape:zoom="6.359375"
     inkscape:cx="19.889736"
     inkscape:cy="20.960124"
     inkscape:window-x="0"
     inkscape:window-y="27"
     inkscape:window-maximized="0"
     inkscape:current-layer="svg2">
    <inkscape:grid
       type="xygrid"
       id="grid2987"
       empspacing="4"
       visible="true"
       enabled="true"
       snapvisiblegridlinesonly="true" />
    <sodipodi:guide
       orientation="1,0"
       position="-14,46"
       id="guide3783" />
  </sodipodi:namedview>
  <g
     inkscape:groupmode="layer"
     id="layer2"
     inkscape:label="logo"
     style="display:inline;filter:url(#filter3844)">
    <path
       style="fill:#34495e;fill-opacity:1;stroke:none"
       d="M 2 5 C 1 7 1 9 1 10 C 1 11 1 12 2 12 L 2 12.75 L 2 24 L 2 45.25 C 2 45.6655 2.3345 46 2.75 46 C 2.3345 46 2 46.3345 2 46.75 L 2 57.25 C 2 57.6655 2.3345 58 2.75 58 L 61.25 58 C 61.6655 58 62 57.6655 62 57.25 L 62 46.75 C 62 46.3345 61.6655 46 61.25 46 C 61.6655 46 62 45.6655 62 45.25 L 62 24 L 62 12.75 L 62 12 C 63 12 63 11 63 10 C 63 9 63 7 62 5 L 2 5 z "
       id="rect3777" />
    <rect
       style="fill:#2c3e50;fill-opacity:1;stroke:none"
       id="rect3788"
       width="50"
       height="26"
       x="7"
       y="17"
       ry="1"
       rx="1" />
    <path
       style="fill:#2c3e50;fill-opacity:1;stroke:none"
       d="m 27,49 10,0 -5,6 z"
       id="path3790"
       inkscape:connector-curvature="0"
       sodipodi:nodetypes="cccc" />
    <rect
       style="fill:#3498db;fill-opacity:1;stroke:none"
       id="rect3792"
       width="48"
       height="24"
       x="8"
       y="18"
       rx="1"
       ry="1" />
    <path
       style="fill:none;stroke:#2c3e50;stroke-width:0.50000000000000000;stroke-linecap:butt;stroke-linejoin:round;stroke-opacity:1;stroke-miterlimit:4;stroke-dasharray:none"
       d="m 7,15 50,0"
       id="path3794"
       inkscape:connector-curvature="0" />
    <path
       style="fill:none;stroke:#2c3e50;stroke-width:0.50000000000000000;stroke-linecap:butt;stroke-linejoin:miter;stroke-opacity:1;stroke-miterlimit:4;stroke-dasharray:none"
       d="m 7,14 50,0"
       id="path3816"
       inkscape:connector-curvature="0" />
    <path
       style="fill:none;stroke:#2c3e50;stroke-width:0.50000000000000000;stroke-linecap:butt;stroke-linejoin:miter;stroke-opacity:1;stroke-miterlimit:4;stroke-dasharray:none"
       d="M 57,13 7,13"
       id="path3818"
       inkscape:connector-curvature="0" />
    <path
       style="fill:none;stroke:#2c3e50;stroke-width:0.50573462000000002;stroke-linecap:butt;stroke-linejoin:miter;stroke-miterlimit:4;stroke-opacity:1;stroke-dasharray:none"
       d="M 6.2557524,12 57.746111,12"
       id="path3820"
       inkscape:connector-curvature="0"
       sodipodi:nodetypes="cc" />
    <path
       style="fill:none;stroke:#2c3e50;stroke-width:0.50369918000000002;stroke-linecap:butt;stroke-linejoin:miter;stroke-miterlimit:4;stroke-opacity:1;stroke-dasharray:none"
       d="M 58,11 6,11"
       id="path3822"
       inkscape:connector-curvature="0"
       sodipodi:nodetypes="cc" />
    <path
       style="fill:none;stroke:#2c3e50;stroke-width:0.50000000000000000;stroke-linecap:butt;stroke-linejoin:miter;stroke-miterlimit:4;stroke-opacity:1;stroke-dasharray:none"
       d="m 6,10 52,0"
       id="path3824"
       inkscape:connector-curvature="0"
       sodipodi:nodetypes="cc" />
    <path
       style="fill:none;stroke:#2c3e50;stroke-width:0.50000000000000000;stroke-linecap:butt;stroke-linejoin:miter;stroke-miterlimit:4;stroke-opacity:1;stroke-dasharray:none"
       d="M 58,9 6,9"
       id="path3826"
       inkscape:connector-curvature="0"
       sodipodi:nodetypes="cc" />
    <path
       style="fill:none;stroke:#2c3e50;stroke-width:0.50000000000000000;stroke-linecap:butt;stroke-linejoin:miter;stroke-miterlimit:4;stroke-opacity:1;stroke-dasharray:none"
       d="M 6,8 58,8"
       id="path3828"
       inkscape:connector-curvature="0"
       sodipodi:nodetypes="cc" />
    <path
       style="fill:none;stroke:#2c3e50;stroke-width:0.50000000000000000;stroke-linecap:butt;stroke-linejoin:miter;stroke-miterlimit:4;stroke-opacity:1;stroke-dasharray:none"
       d="M 58,7 6,7"
       id="path3830"
       inkscape:connector-curvature="0"
       sodipodi:nodetypes="cc" />
  </g>
</svg>

<svg xmlns="http://www.w3.org/2000/svg" width="64" height="64" enable-background="new"><defs><filter id="a"><feBlend in2="BackgroundImage" mode="lighten"/></filter></defs><g style="display:inline;filter:url(#a)"><path d="M2 5c-1 2-1 4-1 5s0 2 1 2v33.25c0 .416.334.75.75.75a.75.75 0 0 0-.75.75v10.5c0 .416.334.75.75.75h58.5c.416 0 .75-.334.75-.75v-10.5a.75.75 0 0 0-.75-.75c.416 0 .75-.334.75-.75V12c1 0 1-1 1-2s0-3-1-5z" style="fill:#34495e;fill-opacity:1;stroke:none"/><rect width="50" height="26" x="7" y="17" rx="1" ry="1" style="fill:#2c3e50;fill-opacity:1;stroke:none"/><path d="M27 49h10l-5 6z" style="fill:#2c3e50;fill-opacity:1;stroke:none"/><rect width="48" height="24" x="8" y="18" rx="1" ry="1" style="fill:#3498db;fill-opacity:1;stroke:none"/><path d="M7 15h50" style="fill:none;stroke:#2c3e50;stroke-width:.5;stroke-linecap:butt;stroke-linejoin:round;stroke-opacity:1;stroke-miterlimit:4;stroke-dasharray:none"/><path d="M7 14h50m0-1H7" style="fill:none;stroke:#2c3e50;stroke-width:.5;stroke-linecap:butt;stroke-linejoin:miter;stroke-opacity:1;stroke-miterlimit:4;stroke-dasharray:none"/><path d="M6.256 12h51.49" style="fill:none;stroke:#2c3e50;stroke-width:.50573462000000002;stroke-linecap:butt;stroke-linejoin:miter;stroke-miterlimit:4;stroke-opacity:1;stroke-dasharray:none"/><path d="M58 11H6" style="fill:none;stroke:#2c3e50;stroke-width:.50369918000000002;stroke-linecap:butt;stroke-linejoin:miter;stroke-miterlimit:4;stroke-opacity:1;stroke-dasharray:none"/><path d="M6 10h52m0-1H6m0-1h52m0-1H6" style="fill:none;stroke:#2c3e50;stroke-width:.5;stroke-linecap:butt;stroke-linejoin:miter;stroke-miterlimit:4;stroke-opacity:1;stroke-dasharray:none"/></g></svg>
